!!!!SEGMENT: pl-kk--kk-i-389--002-002_anonim--missa-no-2-kyrie.krn
!!!cenid: 17xx:2461
!!!COM: Anonim
!!!COM-rismID: pe30004985
!!!CDT:
!!!CNT:
!!!OPR: [Missa] No. 2.
!!!OTL: Kyrie
!!!OMV: 002
!!!PDT:
!!!AGN: Sacred; Mass
!!!YEC: Copyright 2022 Narodowy Instytut Fryderyka Chopina (https://polishscores.org)
!!!YEM: License CC-BY-4.0 (https://creativecommons.org/licenses/by/4.0)
!!!SMS-siglum: PL-Kk
!!!SMS-shelfmark: Kk.I.389
!!!SMS-variant:
!!!SMS-altvar:
!!!SMS-shelfwork: 002-002 M
!!!NIFC-rismSourceID: 1001146182
!!!NIFC-rismChildID: 1001146223
!!!NIFC-islandoraID: pl-kk:6976
!!!URL-pdf-islandora: https://repozytorium.nifc.pl/islandora/object/pl-kk%3A6976/datastream/PDF/view
!!!URL-scan: https://polish.musicsources.pl/pl/lokalizacje/galeria/rekopisy/5999/1 @EN{Scan on Polish Music Sources Website} @PL{Skany w portalu Dziedzictwo Muzyki Polskiej w otwartym dostępie}
!!!IIIF:
!!!ONB-nifc: UWAGA: S – skan 4-5, A – 23-24, T – 42-43 , B – 61-62. Części Mszy: Rorate, Kyrie, Gloria, Graduale, Sanctus, Benedictus, Agnus.
!!!OMD:
!!!AIN: 1 alto 1 bass 1 soprn 1 tenor
!!!key: d
**kern	**text	**kern	**text	**kern	**text	**kern	**text
*part4	*part4	*part3	*part3	*part2	*part2	*part1	*part1
*staff4	*staff4	*staff3	*staff3	*staff2	*staff2	*staff1	*staff1
*ICvox	*	*ICvox	*	*ICvox	*	*ICvox	*
*Ibass	*	*Itenor	*	*Ialto	*	*Isoprn	*
*I"Basso.	*	*I"Tenore.	*	*I"Alto.	*	*I"Soprano.	*
*I'B	*	*I'T	*	*I'A	*	*I'S	*
*clefF4	*	*clefC4	*	*clefC3	*	*clefC1	*
*k[b-]	*	*k[b-]	*	*k[b-]	*	*k[b-]	*
*d:	*	*d:	*	*d:	*	*d:	*
*M3/2	*	*M3/2	*	*M3/2	*	*M3/2	*
=1	=1	=1	=1	=1	=1	=1	=1
*	*	*2\right	*	*2\right	*	*2\right	*
1F	Ky-	2A\	Ky-	2f\	Ky-	2cc\	Ky-
.	.	2c\	.	2a\	.	2ff\	.
*2\right	*	*	*	*	*	*	*
2F\	-ri-	2B-\	-ri-	2b-\	-ri-	2dd\	-ri-
=2	=2	=2	=2	=2	=2	=2	=2
2F\	-e	2A/	-e	1a	-e	1cc	-e
2A\	.	2F/	.	.	.	.	.
2G\	e-	2E/	e-	2b-\	e-	2dd\	e-
=3	=3	=3	=3	=3	=3	=3	=3
2.F\	-le-	2.F/	-le-	2.a\	-le-	2.cc\	-le-
*4\right	*	*	*	*4\right	*	*4\right	*
4E\	.	4G/	.	4b-\	.	4dd\	.
4F\	.	4A/	.	4a\	.	4cc\	.
4G\	-i-	4B-/	-i-	4g\	-i-	4b-\	-i-
=4	=4	=4	=4	=4	=4	=4	=4
2F\	-son	2A\	-son	2f\	-son	2a\	-son,
2r	.	2r	.	2r	.	2r	.
2F\	e-	2A\	e-	4a\	e-	4cc\	Ky-
.	.	.	.	4f\	.	4a\	-ri-
=5	=5	=5	=5	=5	=5	=5	=5
2c\	-lei-	2G/	-lei-	2f\	-lei-	2a\	-e
2C/	-son	2c\	-son	2e\	-son	2g\	.
2E\	e-	2B-\	e-	4b-\	e-	4dd\	Ky-
.	.	.	.	4g\	.	4b-\	-ri-
!	!	!	!	!	!	!LO:LB:g=original	!
=6	=6	=6	=6	=6	=6	=6	=6
2E\	-lei-	2c\	-lei-	2g\	-lei-	2b-\	-e
2F\	-son	2c\	-son	2f\	-son	2a\	.
2F\	e-	2c\	e-	2a\	e-	2cc\	e-
!	!	!LO:LB:g=original	!	!LO:LB:g=original	!	!	!
=7	=7	=7	=7	=7	=7	=7	=7
1F	-le-	4c\	-le-	2a\	-le-	2cc\	-le-
.	.	4A\	.	.	.	.	.
.	.	2F/	.	4b-\	.	4dd\	.
.	.	.	.	4a\	.	4cc\	.
4BB-/	.	2d\	-i-	4g\	.	4b-\	.
4BBn/	-i-	.	.	4f\	-i-	4a\	-i-
!LO:LB:g=original	!	!	!	!	!	!	!
=8	=8	=8	=8	=8	=8	=8	=8
1C	-son,	1c	-son	1e	-son	1g	-son,
2r	.	2r	.	2r	.	2r	.
=9	=9	=9	=9	=9	=9	=9	=9
2.C/	Ky-	2.c\	Ky-	2.e\	Ky-	2.g/	Ky-
*	*	*4\right	*	*	*	*	*
4D/	-ri-	4Bn\	-ri-	4d\	-ri-	4f/	-ri-
2E/	-e	2G/	-e	2c\	-e	2e/	-e
=10	=10	=10	=10	=10	=10	=10	=10
2F\	e-	4c\	e-	4e\	e-	4g/	e-
.	.	4Bn\	.	4d\	.	4f/	.
2G\	.	1G	.	2c/	.	2e/	.
2GG/	.	.	.	2Bn/	.	2d/	-e-
=11	=11	=11	=11	=11	=11	=11	=11
2C/	-lei-	2G/	-lei-	4c\	-le-	4e/	-lei-
.	.	.	.	4e\	-i-	4cc\	-,-
2GG/	-son	2G/	-son	2d\	-son	2bn\	-son
2r	.	2r	.	2r	.	2r	.
!	!	!	!	!	!	!LO:LB:g=original	!
=12	=12	=12	=12	=12	=12	=12	=12
2.C/	Ky-	2.c\	Ky-	2.g\	Ky-	2.ee\	Ky-
4D/	-ri-	4Bn\	-ri-	4f\	-ri-	4dd\	-ri-
2E/	-e	2G/	-e	2e\	-e	2cc\	-e
=13	=13	=13	=13	=13	=13	=13	=13
4E\	e-	2G/	e-	4g\	e-	4ee\	e-
4F\	.	.	.	4f\	.	4dd\	.
2G\	-le-	1G	-lei-	2e\	le-	2cc\	.
2GG/	-i-	.	.	2d\	-i-	2bn\	-e-
!	!	!	!	!LO:LB:g=original	!	!	!
=14	=14	=14	=14	=14	=14	=14	=14
2C/	-son	2G/	-son	2e\	-son	2cc\	-lei-
4C/	Ky-	2G/	Ky-	4e\	Ky-	2cc\	-son
4D/	.	.	.	4f\	.	.	.
4E/	.	2B-X\	-ri-	4g\	.	2cc\	e-
4C/	-ri-	.	.	4e\	-ri-	.	.
!	!	!LO:LB:g=original	!	!	!	!	!
=15	=15	=15	=15	=15	=15	=15	=15
2F\	-e	2c\	-e	2f\	-e	1cc	-lei-
2E\	.	2B-\	.	2g\	.	.	.
2F\	e-	2A\	.	2a\	.	2cc\	-son
!LO:LB:g=original	!	!	!	!	!	!	!
=16	=16	=16	=16	=16	=16	=16	=16
.	.	.	.	8qcc/	.	.	.
2BB-/	-le-	2d\	e-	4b-\	e-	4dd\	e-
*	*	*	*	*8\right	*	*8\right	*
.	.	.	.	8a\L	.	8cc\L	.
.	.	.	.	8g\J	.	8b-\J	.
1C	-i-	1c	-lei-	2f\	-le-	2a\	-le-
.	.	.	.	2e\	-i-	2g\	-i-
=17	=17	=17	=17	=17	=17	=17	=17
!	!	!	!	!	!	!LO:TX:t=P:problem:brakujący takt	!
2F\	-son,	2c\	-son	2f\	-son,	1.ryy	.
4C/	Ky-	2G/	Ky-	4e\	Ky-	.	.
4D/	.	.	.	4f\	.	.	.
4E/	.	2B-X\	-ri-	4g\	.	.	.
4C/	-ri-	.	.	4e\	-ri-	.	.
=18	=18	=18	=18	=18	=18	=18	=18
2F\	-e	1c	-e	2a\	-e	2a\	-son
2G\	.	.	.	2g\	.	2b-\	.
2A\	e-	2c\	e-	2f\	.	2cc\	e-
=19	=19	=19	=19	=19	=19	=19	=19
.	.	.	.	8qcc/	.	8qee/	.
2B-\	-le-	2B-\	-le-	4b-\	e-	4dd\	-le-
.	.	.	.	8a\L	.	8cc\L	.
.	.	.	.	8g\J	.	8b-\J	.
!	!	!	!	!	!	!LO:LB:g=original	!
=-	=-	=-	=-	=-	=-	=-	=-
2c\	.	1c	-i-	2f\	-le-	2a\	-le-
2C/	-i-	.	.	2e\	-i-	2g\	-i-
=20	=20	=20	=20	=20	=20	=20	=20
1F	-son,	1c	-son.	1f	-son	1a	-son.
2r	.	2r	.	2r	.	2r	.
!LO:LB:g=original	!	!LO:LB:g=original	!	!LO:LB:g=original	!	!	!
=21||	=21||	=21||	=21||	=21||	=21||	=21||	=21||
*M3/2	*	*M3/2	*	*M3/2	*	*M3/2	*
1D	Chri-	2A\	Chri-	4d\	Chri-	4a\	Chri-
.	.	.	.	4f\	.	4dd\	.
.	.	2A\	-ste	2a\	.	2ff\	-ste
2C#X/	-ste	2A\	e-	2g\	-ste	2ee\	e-
=22	=22	=22	=22	=22	=22	=22	=22
2D/	Chri-	1A	-lei-	2f\	Chri-	2dd\	-le-
2AA/	.	.	.	2e\	.	2cc#X\	-i-
2D/	-ste	2A\	-son	2f\	-ste	2dd\	-son
=23	=23	=23	=23	=23	=23	=23	=23
4F\	e-	4A\	e-	4a\	e-	4ff\	e-
4G\	.	4B-\	.	4g\	.	4ee\	.
2A\	-le-	1A	-lei-	2f\	-le-	2dd\	-le-
2AA/	-i-	.	.	2e\	-i-	2cc#X\	-i-
=24	=24	=24	=24	=24	=24	=24	=24
2D\	-son,	2A\	-son	2d\	-son	2a\	-son
4D/	e-	4A\	e-	4f\	e-	1a	e-
4C#X/	.	4G\	.	4e\	.	.	.
!LO:N:vis=8D\L	!	!	!	!	!	!	!
4D\	.	4A\	.	4f\	.	.	.
!LO:N:vis=8F\J	!	!	!	!	!	!	!
4F\	.	4B-\	.	4g\	.	.	.
=25	=25	=25	=25	=25	=25	=25	=25
2A\	-lei-	2A\	-lei-	2f\	-lei-	2dd\	-lei-
2AA/	-son	2A\	-son	2e\	-son	2cc#X\	-son
2r	.	2r	.	2r	.	2r	.
=26	=26	=26	=26	=26	=26	=26	=26
1F	Chri-	2c\	Chri-	4c\	Chri-	2a\	Chri-
.	.	.	.	4f\	.	.	.
!	!	!	!	!	!	!LO:LB:g=original	!
=-	=-	=-	=-	=-	=-	=-	=-
.	.	2c\	-ste	2a\	.	2ccn\	-ste
2E\	-ste	2c\	e-	2g\	-ste	2b-X\	e-
=27	=27	=27	=27	=27	=27	=27	=27
2F\	Chri-	2c\	-lei-	2g\	Chri-	2b-\	-lei-
2F\	-ste	2c\	-son	2f\	.	2a\	-son
2F\	e-	2c\	e-	2a\	-ste	2cc\	e-
!	!	!LO:LB:g=original	!	!LO:LB:g=original	!	!	!
=28	=28	=28	=28	=28	=28	=28	=28
2F\	-le-	1.c	-lei-	2a\	e-	2cc\	-le-
2G\	-i-	.	.	2g\	.	2b-\	.
4A\	-son	.	.	2f\	.	2a\	.
4B-\	e-	.	.	.	.	.	.
!LO:LB:g=original	!	!	!	!	!	!	!
=29	=29	=29	=29	=29	=29	=29	=29
2c\	-lei-	2c\	-son	2f\	-lei-	2a\	-i-
2C/	-son	2r	.	2e\	-son	2g\	-son
2r	.	2r	.	2r	.	2r	.
=30	=30	=30	=30	=30	=30	=30	=30
1C#X	Chri-	2B-\	Chri-	2e\	Chri-	2g\	Chri-
.	.	2B-\	-ste	2e\	-ste	2g\	-ste
2C#/	-ste	2B-\	e-	2e\	e-	2g\	e-
=31	=31	=31	=31	=31	=31	=31	=31
4D\	e-	2A\	-le-	4f\	-le-	1.a	-le-
4A\	.	.	.	4d\	.	.	.
4F\	.	1d	.	4a\	.	.	.
4A\	.	.	.	4f\	.	.	.
4F\	.	.	.	4d\	-i-	.	.
4D\	.	.	.	4f\	-son	.	.
=32	=32	=32	=32	=32	=32	=32	=32
2G\	-le-	2B-\	.	2g\	e-	2b-\	.
1A	-i-	1A	-i-	2f\	-le-	2dd\	.
.	.	.	.	2e\	-i-	2cc#X\	-i-
=33	=33	=33	=33	=33	=33	=33	=33
!	!	!	!	!LO:N:vis=1f;	!	!LO:N:vis=1dd;	!
1B-	-son,	1.B-;	-son.	1.f;	-son,	1.dd;	-son,
2r;	.	.	.	.	.	.	.
=34||	=34||	=34||	=34||	=34||	=34||	=34||	=34||
2.G\	Ky-	2B-\	Ky-	1e	Ky-	2cc#X\	Ky-
.	.	2B-\	-ri-	.	.	2cc#\	-ri-
4G\	-ri-	.	.	.	.	.	.
2G\	-e	2B-\	-e	2e\	-ri-	2cc#\	-e
!	!	!	!	!	!	!LO:LB:g=original	!
=35	=35	=35	=35	=35	=35	=35	=35
4F\	e-	1.A	e-	4f\	-e	4dd\	e-
4E\	.	.	.	4e\	.	4cc#X\	.
4D\	.	.	.	4f\	.	4dd\	.
4A\	.	.	.	4e\	.	4cc#\	.
4F\	.	.	.	2f\	.	2dd\	.
4D\	.	.	.	.	.	.	.
=36	=36	=36	=36	=36	=36	=36	=36
2G\	-le-	2B-\	-le-	2g\	e-	2ee\	-le-
2A\	.	1A	-i-	2f\	-le-	2dd\	.
2AA/	-i-	.	.	2e\	-i-	2cc#X\	-i-
=37	=37	=37	=37	=37	=37	=37	=37
1D	-son.	1A	-son.	1f	-son.	1dd	-son.
2r	.	2r	.	2ryy	.	2r	.
==	==	==	==	==	==	==	==
*-	*-	*-	*-	*-	*-	*-	*-
!!!system-decoration: [(s1,s2,s3,s4)]
!!!ENC: Filip Voros
!!!END: 2023-11-06
!!!EED: Marta Chmielewska
!!!EEV: 2023-11-26
